Dominus_Dark_Funeral/22/apps/system-file-manager.svg

<svg xmlns="http://www.w3.org/2000/svg" width="24" height="24" version="1"><path d="M11.93.73c-3.63 0-8.51 3.51-8.6 6.5-.08 3.22-.31 9.07-.48 13.56H.63v2.93h22.71V20.8h-2.38c-.16-5.23-.35-11.26-.48-13.57-.17-3.1-4.94-6.5-8.56-6.5zm0 1.67c2.72 0 6.9 3.12 6.9 5.8-.04 1.84.06 6.05.05 12.58H4.94c-.03-7.04.12-12.64.12-12.64 0-2.6 4.14-5.74 6.87-5.74zM10.8 5.25v5.78H8.45v2.27h2.34v1.78h2.27V13.3h2.41v-2.28h-2.41V5.25z" fill="#e6e6e6"/></svg>

<?xml version="1.0" encoding="UTF-8" standalone="no"?>
<svg
   xmlns:dc="http://purl.org/dc/elements/1.1/"
   xmlns:cc="http://creativecommons.org/ns#"
   xmlns:rdf="http://www.w3.org/1999/02/22-rdf-syntax-ns#"
   xmlns:svg="http://www.w3.org/2000/svg"
   xmlns="http://www.w3.org/2000/svg"
   xmlns:sodipodi="http://sodipodi.sourceforge.net/DTD/sodipodi-0.dtd"
   xmlns:inkscape="http://www.inkscape.org/namespaces/inkscape"
   width="24"
   height="24"
   version="1"
   id="svg4"
   sodipodi:docname="system-file-manager.svg"
   inkscape:version="0.92.4 (5da689c313, 2019-01-14)">
  <metadata
     id="metadata10">
    <rdf:RDF>
      <cc:Work
         rdf:about="">
        <dc:format>image/svg+xml</dc:format>
        <dc:type
           rdf:resource="http://purl.org/dc/dcmitype/StillImage" />
        <dc:title></dc:title>
      </cc:Work>
    </rdf:RDF>
  </metadata>
  <defs
     id="defs8" />
  <sodipodi:namedview
     pagecolor="#ffffff"
     bordercolor="#666666"
     borderopacity="1"
     objecttolerance="10"
     gridtolerance="10"
     guidetolerance="10"
     inkscape:pageopacity="0"
     inkscape:pageshadow="2"
     inkscape:window-width="1138"
     inkscape:window-height="480"
     id="namedview6"
     showgrid="false"
     inkscape:zoom="9.8333333"
     inkscape:cx="1.0677966"
     inkscape:cy="12"
     inkscape:window-x="0"
     inkscape:window-y="25"
     inkscape:window-maximized="0"
     inkscape:current-layer="svg4" />
  <path
     d="M 11.93,0.73 C 8.3,0.73 3.42,4.24 3.33,7.23 3.25,10.45 3.02,16.3 2.85,20.79 H 0.63 v 2.93 H 23.34 V 20.8 H 20.96 C 20.8,15.57 20.61,9.54 20.48,7.23 20.31,4.13 15.54,0.73 11.92,0.73 Z m 0,1.67 c 2.72,0 6.9,3.12 6.9,5.8 -0.04,1.84 0.06,6.05 0.05,12.58 H 4.94 C 4.91,13.74 5.06,8.14 5.06,8.14 5.06,5.54 9.2,2.4 11.93,2.4 Z M 10.8,5.25 v 5.78 H 8.45 v 2.27 h 2.34 v 1.78 h 2.27 V 13.3 h 2.41 V 11.02 H 13.06 V 5.25 Z"
     id="path2"
     inkscape:connector-curvature="0"
     style="fill:#e6e6e6" />
</svg>
